X:1
T:Nuala's Jig
C:Nigel Gatherer
Z:Nigel Gatherer
M:6/8
L:1/8
%Q:1/1=300
K:G
"G"G2B "G"dcA | "D"AGF "G"GBd | "G"g3  "G"d2B | "D"cAG "D"FED |
"G"G2B "G"dcA | "D"AGF "G"GBd | "G"g3  "D"afd | "D"cAF "G"G3 :|
"Em"B2e gfe | "D"faf def | "G"g3  "G"d2B | "D"cAG FED |
"Em"B2e gfe | "D"faf def | "G"g3  "D"afd | "D"cAF "G"G3 :|

http://www.danmozell.com/d-mozell.htm
Posted to Scots-L - The Traditional Scottish Music & Culture List - To subscribe/unsubscribe, point your browser to: http://www.tullochgorm.com/lists.html
